src/icons/IconSmile/IconSmile_size_s.svg

<svg viewBox="0 0 16 16" xmlns="http://www.w3.org/2000/svg">
  <path d="M6.5 6H5V7.5H6.5V6Z" />
  <path d="M9.5 6H11V7.5H9.5V6Z" />
  <path
    d="M10.278 8.79692C10.0241 9.69973 9.10236 10.2497 7.99981 10.25C6.89701 10.2502 5.97562 9.70054 5.72191 8.79981L4.27809 9.2065C4.77438 10.9684 6.47799 11.7503 8.00019 11.75C9.52264 11.7496 11.2259 10.9666 11.722 9.20308L10.278 8.79692Z"
  />
  <path
    fill-rule="evenodd"
    clip-rule="evenodd"
    d="M15 8C15 11.866 11.866 15 8 15C4.13401 15 1 11.866 1 8C1 4.13401 4.13401 1 8 1C11.866 1 15 4.13401 15 8ZM13.5 8C13.5 11.0376 11.0376 13.5 8 13.5C4.96243 13.5 2.5 11.0376 2.5 8C2.5 4.96243 4.96243 2.5 8 2.5C11.0376 2.5 13.5 4.96243 13.5 8Z"
  />
</svg>

<svg width="16" height="16" xmlns="http://www.w3.org/2000/svg">
  <path
    d="M6.5 6H5v1.5h1.5V6zM9.5 6H11v1.5H9.5V6zM10.278 8.797C10.024 9.7 9.102 10.25 8 10.25c-1.103 0-2.024-.55-2.278-1.45l-1.444.406c.496 1.762 2.2 2.544 3.722 2.544 1.523 0 3.226-.783 3.722-2.547l-1.444-.406z"
  />
  <path
    fill-rule="evenodd"
    clip-rule="evenodd"
    d="M15 8A7 7 0 111 8a7 7 0 0114 0zm-1.5 0a5.5 5.5 0 11-11 0 5.5 5.5 0 0111 0z"
  />
</svg>
